libs/ui/packages/crypto-icons/src/svg/APPC.svg

<svg width="24" height="24" viewBox="0 0 24 24" fill="none">
<path d="M10.2449 13.4152L12.0344 8.08116L13.8569 13.4152H10.2449ZM17.8289 16.7879L16.3492 12.8062H17.2327C17.4 12.8064 17.5607 12.7407 17.68 12.6234C17.7993 12.506 17.8676 12.3465 17.8702 12.1792C17.8702 12.0217 17.8057 11.8694 17.6924 11.7584C17.5792 11.6474 17.4239 11.5837 17.2627 11.5837H15.8827L15.6614 10.9642H17.2327C17.3964 10.9656 17.5542 10.9033 17.6727 10.7903C17.7912 10.6772 17.8609 10.5225 17.8672 10.3589C17.8679 10.1924 17.8012 10.0334 17.6812 9.91641C17.5612 9.79941 17.3992 9.73341 17.2297 9.73416H15.1897L14.0849 6.75816C13.9186 6.33119 13.6457 5.95394 13.2922 5.66241C12.9396 5.37948 12.4966 5.23351 12.0449 5.25141C11.5918 5.23677 11.1481 5.3823 10.7917 5.66241C10.4382 5.95422 10.1647 6.33099 9.99666 6.75741L8.83941 9.76041H6.81141C6.65106 9.759 6.49665 9.82105 6.38187 9.93303C6.26708 10.045 6.20123 10.1978 6.19866 10.3582C6.19866 10.7017 6.48291 10.9799 6.83391 10.9799H8.37366L8.13666 11.5829H6.75666C6.67698 11.582 6.5979 11.5968 6.52395 11.6265C6.44999 11.6562 6.3826 11.7001 6.32563 11.7558C6.26866 11.8116 6.22323 11.8779 6.19192 11.9512C6.16061 12.0245 6.14404 12.1032 6.14316 12.1829C6.14316 12.5234 6.42366 12.7987 6.77016 12.8002H7.65591L6.15141 16.7872C6.05916 17.0122 6.00816 17.2507 5.99991 17.4929C6.01491 17.8327 6.16641 18.1529 6.41991 18.3854C6.7005 18.623 7.05726 18.7516 7.42491 18.7477C7.73203 18.7662 8.03628 18.6793 8.28725 18.5013C8.53822 18.3233 8.72085 18.0649 8.80491 17.7689L9.38691 16.0672H14.7449L15.3277 17.8094C15.4222 18.0954 15.609 18.3418 15.8588 18.5102C16.1085 18.6785 16.4071 18.7591 16.7077 18.7394C16.9402 18.7447 17.1689 18.6869 17.3707 18.5744C17.5454 18.4469 17.7007 18.2969 17.8312 18.1259C17.945 17.9346 18.0035 17.7155 17.9999 17.4929C17.9634 17.2566 17.9062 17.024 17.8289 16.7977V16.7879Z" fill="#FD875E"/>
</svg>

<svg width="24" height="24" viewBox="0 0 24 24" fill="none"><path fill="#fd875e" d="m10.245 13.415 1.79-5.334 1.822 5.334zm7.584 3.373-1.48-3.982h.884a.637.637 0 0 0 .637-.627.6.6 0 0 0-.178-.42.62.62 0 0 0-.43-.175h-1.38l-.22-.62h1.57a.63.63 0 0 0 .635-.605.6.6 0 0 0-.186-.443.64.64 0 0 0-.451-.182h-2.04l-1.105-2.976a2.7 2.7 0 0 0-.793-1.096 1.87 1.87 0 0 0-1.247-.41 1.93 1.93 0 0 0-1.253.41 2.7 2.7 0 0 0-.795 1.095L8.839 9.76H6.811a.607.607 0 0 0-.612.598c0 .344.284.622.635.622h1.54l-.237.603h-1.38a.606.606 0 0 0-.614.6c0 .34.28.616.627.617h.886L6.15 16.787a2 2 0 0 0-.151.706c.015.34.166.66.42.892.28.238.637.367 1.005.363a1.35 1.35 0 0 0 1.38-.98l.582-1.7h5.358l.583 1.741a1.36 1.36 0 0 0 1.38.93c.232.006.46-.052.663-.165q.263-.191.46-.448a1.2 1.2 0 0 0 .169-.633 4 4 0 0 0-.171-.695z"/></svg>
